X: 3157
T: Beauty Spot, The
R: reel
M: 4/4
K: Dmixolydian
|(3.A.c.A GB A2 dB|cAAG EFGc|(3.A.c.A GB A2dB|cAGE ED (3DDD|
(3.A.c.A DB DAdB|cAAG EFGc|(3.A.c.A DB D2 dB|cAGE ED (3DDD||
ed d2 ed (3Bcd|ed d2 eaag|ed d2 edcA|GAcd edd2|
ed (3.B.^c.d edcd|ed (3.B.^c.d eaag|afge fde^c|Add^c dedc||

